src/icons/logos/alpinejs.svg

<svg width="804" height="220" viewBox="0 0 804 220" fill="none" xmlns="http://www.w3.org/2000/svg">
<g clip-path="url(#clip0_643_230)">
<path d="M268.472 151.666L273.225 136.331H303.375L308.129 151.666H330.074L302.268 64.4639H275.765L246.332 151.666H268.472ZM298.622 120.931H278.5L288.724 89.0262L298.622 120.931ZM364.261 151.666V61.9947H343.423V151.666H364.261ZM407.239 182.727L407.238 148.972L407.303 149.031C407.957 149.634 408.657 150.175 409.402 150.653L409.779 150.887C412.948 152.793 416.898 153.746 421.63 153.746C427.057 153.746 432.147 152.403 436.9 149.717C441.654 147.031 445.496 143.154 448.426 138.086C451.357 133.017 452.822 126.888 452.822 119.697C452.822 112.462 451.378 106.311 448.491 101.242C445.605 96.1739 441.86 92.2968 437.259 89.611C432.657 86.9252 427.795 85.5823 422.672 85.5823C418.808 85.5823 415.162 86.5678 411.732 88.5388C409.263 89.958 407.137 92.0003 405.354 94.6658L405.097 95.0587L403.397 87.6616H386.401V182.727H407.239ZM418.309 134.772C416.312 134.772 414.467 134.404 412.774 133.667C411.081 132.931 409.735 131.913 408.737 130.613C407.738 129.313 407.239 127.797 407.239 126.065H407.238V115.538L407.246 115.091C407.302 113.173 407.725 111.474 408.515 109.995L408.704 109.657C409.681 107.989 411.038 106.701 412.774 105.791C414.511 104.881 416.486 104.426 418.7 104.426C421.435 104.426 423.79 105.054 425.765 106.311C427.74 107.567 429.271 109.343 430.356 111.639C431.441 113.935 431.984 116.621 431.984 119.697C431.984 123.335 431.257 126.259 429.803 128.469C428.348 130.678 426.568 132.281 424.463 133.277C422.357 134.274 420.306 134.772 418.309 134.772ZM481.8 79.4092C485.62 79.4092 488.637 78.402 490.851 76.3877C493.065 74.3733 494.172 71.525 494.172 67.8429C494.172 64.2473 493.065 61.3774 490.851 59.2331C488.637 57.0888 485.62 56.0166 481.8 56.0166C477.849 56.0166 474.799 57.0888 472.65 59.2331C470.501 61.3774 469.427 64.2473 469.427 67.8429C469.427 71.525 470.501 74.3733 472.65 76.3877C474.799 78.402 477.849 79.4092 481.8 79.4092ZM492.218 151.666V87.2717H471.381V151.666H492.218ZM537.02 151.666V124.7L537.024 124.038C537.073 119.668 537.616 116.094 538.652 113.317L538.811 112.906C540.004 109.939 541.6 107.784 543.597 106.441C545.594 105.098 547.786 104.426 550.174 104.426C552.518 104.426 554.515 105.239 556.165 106.863C557.814 108.488 558.639 110.989 558.639 114.368V151.666H579.607V114.368C579.607 108.78 578.782 103.82 577.133 99.4879C575.483 95.1559 572.911 91.7553 569.416 89.2861C565.922 86.8169 561.418 85.5823 555.904 85.5823C551.085 85.5823 546.777 86.9252 542.978 89.611C540.62 91.2781 538.572 93.5376 536.833 96.3896L536.654 96.6891L534.545 87.6616H516.182V151.666H537.02ZM625.646 153.746C630.942 153.746 635.62 152.793 639.679 150.887C643.738 148.981 647.037 146.403 649.577 143.154C652.117 139.905 653.712 136.288 654.363 132.303H633.656C633.091 133.992 632.093 135.227 630.66 136.006C629.227 136.786 627.556 137.176 625.646 137.176C623.302 137.176 621.359 136.624 619.818 135.519C618.277 134.414 617.115 132.866 616.334 130.873C615.553 128.88 615.162 126.519 615.162 123.79L615.163 123.92H653.712C654.74 119.324 654.94 114.854 654.313 110.51L654.2 109.787C653.441 105.217 651.834 101.112 649.382 97.4735C646.929 93.8347 643.705 90.9431 639.712 88.7988C635.718 86.6544 631.029 85.5823 625.646 85.5823C620.219 85.5823 615.14 86.9252 610.408 89.611C605.676 92.2968 601.856 96.1631 598.947 101.21C596.039 106.257 594.584 112.311 594.584 119.372C594.584 126.433 596.05 132.541 598.98 137.696C601.91 142.851 605.741 146.815 610.473 149.587C615.205 152.36 620.263 153.746 625.646 153.746ZM635.543 113.394H615.255L615.257 113.376C615.415 111.599 615.771 110.019 616.325 108.636L616.497 108.228C617.387 106.213 618.646 104.675 620.274 103.614C621.902 102.553 623.823 102.022 626.037 102.022C628.034 102.022 629.672 102.423 630.953 103.224C632.234 104.026 633.221 105.087 633.916 106.408C634.611 107.729 635.077 109.17 635.316 110.729C635.435 111.509 635.509 112.283 635.536 113.052L635.543 113.394ZM676.503 152.836C680.628 152.836 684.035 151.591 686.727 149.1C689.418 146.609 690.764 143.436 690.764 139.58C690.764 135.725 689.418 132.519 686.727 129.963C684.035 127.407 680.628 126.129 676.503 126.129C672.379 126.129 669.026 127.407 666.443 129.963C663.86 132.519 662.568 135.725 662.568 139.58C662.568 143.392 663.86 146.555 666.443 149.067C669.026 151.58 672.379 152.836 676.503 152.836ZM716.291 79.4092C720.111 79.4092 723.128 78.402 725.342 76.3877C727.556 74.3733 728.663 71.525 728.663 67.8429C728.663 64.2473 727.556 61.3774 725.342 59.2331C723.128 57.0888 720.111 56.0166 716.291 56.0166C712.47 56.0166 709.432 57.0888 707.174 59.2331C704.917 61.3774 703.788 64.2473 703.788 67.8429C703.788 71.525 704.917 74.3733 707.174 76.3877C709.432 78.402 712.47 79.4092 716.291 79.4092ZM703.853 185.001C711.45 185.001 717.202 182.932 721.109 178.795C725.017 174.658 726.97 167.673 726.97 157.839V87.4017H706.002V157.45C706.002 161.175 705.34 163.666 704.016 164.922C702.692 166.179 700.684 166.807 697.992 166.807C695.909 166.807 693.651 166.503 691.22 165.897C688.789 165.29 686.64 164.619 684.773 163.883V181.752C687.769 182.575 690.743 183.322 693.695 183.994C696.647 184.665 700.033 185.001 703.853 185.001ZM775.679 153.746C781.062 153.746 785.881 152.749 790.135 150.757C794.389 148.764 797.743 146.176 800.196 142.992C802.648 139.808 803.875 136.44 803.875 132.887C803.875 128.989 802.616 125.74 800.098 123.14C797.58 120.541 794.129 118.375 789.744 116.642L772.032 109.56C769.297 108.607 767.93 107.307 767.93 105.661C767.93 104.448 768.581 103.473 769.883 102.737C771.185 102 772.965 101.632 775.223 101.632C777.958 101.632 779.911 102.141 781.083 103.159C782.256 104.177 782.842 105.379 782.842 106.766H801.921C801.878 100.614 799.555 95.5458 794.954 91.5604C790.352 87.575 783.775 85.5823 775.223 85.5823C766.106 85.5823 758.922 87.3367 753.669 90.8456C748.416 94.3545 745.789 98.9464 745.789 104.621C745.789 108.65 747.037 112.126 749.534 115.05C752.03 117.975 755.579 120.39 760.18 122.296L775.744 128.339C777.393 128.989 778.609 129.638 779.39 130.288C780.172 130.938 780.562 131.804 780.562 132.887C780.562 133.71 780.28 134.479 779.716 135.194C779.152 135.909 778.305 136.483 777.176 136.916C776.048 137.349 774.615 137.566 772.879 137.566C770.013 137.566 767.745 137.133 766.074 136.266C764.402 135.4 763.523 133.84 763.436 131.588H744.617C744.574 136.57 745.865 140.696 748.492 143.966C751.118 147.237 754.776 149.685 759.464 151.309C764.153 152.934 769.557 153.746 775.679 153.746Z" fill="black"/>
<path opacity="0.4" fill-rule="evenodd" clip-rule="evenodd" d="M165.911 58.6899L213.118 105.59L165.911 152.49L118.704 105.59L165.911 58.6899Z" fill="black"/>
<path fill-rule="evenodd" clip-rule="evenodd" d="M47.8924 58.6899L145.759 155.92H51.3445L0.685059 105.59L47.8924 58.6899Z" fill="black"/>
</g>
<defs>
<clipPath id="clip0_643_230">
<rect width="804" height="129.001" fill="white" transform="translate(0 56)"/>
</clipPath>
</defs>
</svg>

<svg xmlns="http://www.w3.org/2000/svg" width="804" height="220" fill="none">
    <g fill="#000" clip-path="url(#a)">
        <path
            d="m268.472 151.666 4.753-15.335h30.15l4.754 15.335h21.945l-27.806-87.202h-26.503l-29.433 87.202h22.14Zm30.15-30.735H278.5l10.224-31.905 9.898 31.905Zm65.639 30.735V61.995h-20.838v89.671h20.838Zm42.978 31.061-.001-33.755.065.059a15.205 15.205 0 0 0 2.099 1.622l.377.234c3.169 1.906 7.119 2.859 11.851 2.859 5.427 0 10.517-1.343 15.27-4.029 4.754-2.686 8.596-6.563 11.526-11.631 2.931-5.069 4.396-11.198 4.396-18.389 0-7.235-1.444-13.386-4.331-18.455-2.886-5.068-6.631-8.945-11.232-11.631-4.602-2.686-9.464-4.029-14.587-4.029-3.864 0-7.51.986-10.94 2.957-2.469 1.419-4.595 3.461-6.378 6.127l-.257.393-1.7-7.397h-16.996v95.065h20.838Zm11.07-47.955c-1.997 0-3.842-.368-5.535-1.105-1.693-.736-3.039-1.754-4.037-3.054-.999-1.3-1.498-2.816-1.498-4.548h-.001v-10.527l.008-.447c.056-1.918.479-3.617 1.269-5.096l.189-.338c.977-1.668 2.334-2.956 4.07-3.866 1.737-.91 3.712-1.365 5.926-1.365 2.735 0 5.09.628 7.065 1.885 1.975 1.256 3.506 3.032 4.591 5.328 1.085 2.296 1.628 4.982 1.628 8.058 0 3.638-.727 6.562-2.181 8.772-1.455 2.209-3.235 3.812-5.34 4.808-2.106.997-4.157 1.495-6.154 1.495ZM481.8 79.409c3.82 0 6.837-1.007 9.051-3.021 2.214-2.015 3.321-4.863 3.321-8.545 0-3.596-1.107-6.466-3.321-8.61-2.214-2.144-5.231-3.216-9.051-3.216-3.951 0-7.001 1.072-9.15 3.216s-3.223 5.014-3.223 8.61c0 3.682 1.074 6.53 3.223 8.545 2.149 2.014 5.199 3.021 9.15 3.021Zm10.418 72.257V87.272h-20.837v64.394h20.837Zm44.802 0V124.7l.004-.662c.049-4.37.592-7.944 1.628-10.721l.159-.411c1.193-2.967 2.789-5.122 4.786-6.465 1.997-1.343 4.189-2.015 6.577-2.015 2.344 0 4.341.813 5.991 2.437 1.649 1.625 2.474 4.126 2.474 7.505v37.298h20.968v-37.298c0-5.588-.825-10.548-2.474-14.88-1.65-4.332-4.222-7.733-7.717-10.202-3.494-2.47-7.998-3.704-13.512-3.704-4.819 0-9.127 1.343-12.926 4.029-2.358 1.667-4.406 3.927-6.145 6.779l-.179.3-2.109-9.028h-18.363v64.004h20.838Zm88.626 2.08c5.296 0 9.974-.953 14.033-2.859 4.059-1.906 7.358-4.484 9.898-7.733 2.54-3.249 4.135-6.866 4.786-10.851h-20.707c-.565 1.689-1.563 2.924-2.996 3.703-1.433.78-3.104 1.17-5.014 1.17-2.344 0-4.287-.552-5.828-1.657-1.541-1.105-2.703-2.653-3.484-4.646-.781-1.993-1.172-4.354-1.172-7.083l.001.13h38.549c1.028-4.596 1.228-9.066.601-13.41l-.113-.723c-.759-4.57-2.366-8.675-4.818-12.314-2.453-3.638-5.677-6.53-9.67-8.674-3.994-2.145-8.683-3.217-14.066-3.217-5.427 0-10.506 1.343-15.238 4.029-4.732 2.686-8.552 6.552-11.461 11.599-2.908 5.047-4.363 11.101-4.363 18.162 0 7.061 1.466 13.169 4.396 18.324 2.93 5.155 6.761 9.119 11.493 11.891 4.732 2.773 9.79 4.159 15.173 4.159Zm9.897-40.352h-20.288l.002-.018c.158-1.777.514-3.357 1.068-4.74l.172-.408c.89-2.015 2.149-3.553 3.777-4.614 1.628-1.061 3.549-1.592 5.763-1.592 1.997 0 3.635.401 4.916 1.202a8.205 8.205 0 0 1 2.963 3.184 13.652 13.652 0 0 1 1.4 4.321c.119.78.193 1.554.22 2.323l.007.342Zm40.96 39.442c4.125 0 7.532-1.245 10.224-3.736 2.691-2.491 4.037-5.664 4.037-9.52 0-3.855-1.346-7.061-4.037-9.617-2.692-2.556-6.099-3.834-10.224-3.834-4.124 0-7.477 1.278-10.06 3.834s-3.875 5.762-3.875 9.617c0 3.812 1.292 6.975 3.875 9.487 2.583 2.513 5.936 3.769 10.06 3.769Zm39.788-73.427c3.82 0 6.837-1.007 9.051-3.021 2.214-2.015 3.321-4.863 3.321-8.545 0-3.596-1.107-6.466-3.321-8.61-2.214-2.144-5.231-3.216-9.051-3.216-3.821 0-6.859 1.072-9.117 3.216-2.257 2.144-3.386 5.014-3.386 8.61 0 3.682 1.129 6.53 3.386 8.545 2.258 2.014 5.296 3.021 9.117 3.021Zm-12.438 105.592c7.597 0 13.349-2.069 17.256-6.206 3.908-4.137 5.861-11.122 5.861-20.956V87.402h-20.968v70.048c0 3.725-.662 6.216-1.986 7.472-1.324 1.257-3.332 1.885-6.024 1.885-2.083 0-4.341-.304-6.772-.91-2.431-.607-4.58-1.278-6.447-2.014v17.869c2.996.823 5.97 1.57 8.922 2.242 2.952.671 6.338 1.007 10.158 1.007Zm71.826-31.255c5.383 0 10.202-.997 14.456-2.989 4.254-1.993 7.608-4.581 10.061-7.765 2.452-3.184 3.679-6.552 3.679-10.105 0-3.898-1.259-7.147-3.777-9.747-2.518-2.599-5.969-4.765-10.354-6.498l-17.712-7.082c-2.735-.953-4.102-2.253-4.102-3.899 0-1.213.651-2.188 1.953-2.924 1.302-.737 3.082-1.105 5.34-1.105 2.735 0 4.688.509 5.86 1.527 1.173 1.018 1.759 2.22 1.759 3.607h19.079c-.043-6.152-2.366-11.22-6.967-15.206-4.602-3.985-11.179-5.978-19.731-5.978-9.117 0-16.301 1.755-21.554 5.264-5.253 3.508-7.88 8.1-7.88 13.775 0 4.029 1.248 7.505 3.745 10.429 2.496 2.925 6.045 5.34 10.646 7.246l15.564 6.043c1.649.65 2.865 1.299 3.646 1.949.782.65 1.172 1.516 1.172 2.599 0 .823-.282 1.592-.846 2.307-.564.715-1.411 1.289-2.54 1.722-1.128.433-2.561.65-4.297.65-2.866 0-5.134-.433-6.805-1.3-1.672-.866-2.551-2.426-2.638-4.678h-18.819c-.043 4.982 1.248 9.108 3.875 12.378 2.626 3.271 6.284 5.719 10.972 7.343 4.689 1.625 10.093 2.437 16.215 2.437Z" />
        <path fill-rule="evenodd" d="m165.911 58.69 47.207 46.9-47.207 46.9-47.207-46.9 47.207-46.9Z"
            clip-rule="evenodd" opacity=".4" />
        <path fill-rule="evenodd" d="m47.892 58.69 97.867 97.23H51.345L.684 105.59l47.207-46.9Z" clip-rule="evenodd" />
    </g>
    <defs>
        <clipPath id="a">
            <path fill="#fff" d="M0 56h804v129.001H0z" />
        </clipPath>
    </defs>
</svg>
